X:801
T:Reel 801
M:4/4
K:Dmaj
L:1/8
B>E (3EEE B2cd|E>E (3EEE GEGB||AcBA A2ED|CDED FDDDc:||2dBGE A2FA|dcdB cded|cABc dfed|cAAc EFAc|BAGF EFGB|ec (3ABA dfed|cABG FDD2|efgf gfed|cAGE EDD2|
